X: 12024
T: Ereshire Lasses, The
R: reel
M: 4/4
K: Cmajor
EGcG AGcG|EGcG dDDF|EGcG AGca|gede c/c/c c2:|
gecg egca|gecg fdda|gecg egca|gede c/c/c c2|
gecg egca|gecg fdda|gecg egde|cAGE C/C/C C2||

